apps/documenteditor/main/resources/img/toolbar/2.5x/big/btn-previous-field.svg

<svg width="28" height="28" viewBox="0 0 28 28" fill="none" xmlns="http://www.w3.org/2000/svg">
<path fill-rule="evenodd" clip-rule="evenodd" d="M23.0002 7H6.00015L6.00015 13H5.00015V7C5.00015 6.44772 5.44787 6 6.00015 6H23.0002C23.5524 6 24.0002 6.44772 24.0002 7V18C24.0002 18.5523 23.5524 19 23.0002 19H17.0002V18H23.0002V7ZM10.2073 15.2072L7.41436 18.0001H15.0002V20.0001H7.41436L10.2073 22.793L8.79304 24.2072L4.29304 19.7072L3.58594 19.0001L4.29304 18.293L8.79304 13.793L10.2073 15.2072Z" fill="black"/>
</svg>

<svg xmlns="http://www.w3.org/2000/svg" width="28" height="28" fill="none"><path fill="#000" d="M10.207 15.207 7.414 18H15v2H7.414l2.793 2.793-1.414 1.414L3.586 19l5.207-5.207 1.414 1.414Z"/><path fill="#000" d="M23 6a1 1 0 0 1 1 1v11a1 1 0 0 1-.898.995L23 19h-6v-1h6V7H6v6H5V7a1 1 0 0 1 1-1h17Z"/></svg>
